X:860
T: Mossy Banks (a)
T: Na Bruacha Caonaigh
S: B.Breathnach: "Ceol Rince na hEireann" II/196
Z: B.Black
L: 1/8
M: 4/4
R: reel
K: G
AB|cBAG FGAB|cBAB cdef|gagf gfec|dcAG ABAB|
cBAG FGAB|cBAB c>def|gagf gfec|dcAF G2 ||
AB|cBAA (3Bcd ef|gagf gfef|gagf geag|fedf e2 AB|
cdcB cAdc|BAGA Bc d2|ef/g/af gfec|dcAF G2 ||
